X:338
T:Balmacara 
C:Joe Buchanan's Scottish Tome - Page 120.0
I:120 0
C:Donald MacLean
R:March
Z:Carl Allison
L:1/8
M:6/8
K:D
d | "G"B>dB "D"A2 A | "D"d>ef a>fd | "Em"e>ce g>fe | "A7"d>fe d>BA |
"G"Bd>B "D"A2 A | "D"d>ef a>fd | "A7"A>ce g>ec | "D"d>ed (d2 d) :|
A | "D"d>fa {B}A2 a | "D"fed a>fd | "Em"e>ce g>fe | "A7"d>fe d>BA |
"D"d>fa {B}A2 a | "D"f>ed a>fd | "A7"A>ce g>ec | "D"d>ed d2 A |
"D"d>fa {B}A2 a | "D"f>ed a>fd | "Em"e>ce g>fe | "A7"d>fe d>BA |
"G"B<dB "D"A2 A | "D"d>ef a>fd | "A7"A>ce g>ec | "D"d>ed (d2 d) |]
f | "D"A>BB B>dd | "D"d>ff a>fd | "Em"e>ff f>ee | "Em"e>dd "A7"d>BA |
"D"A>BB B>dd | "D"d>ff a>fd | "A7"A>ce g>ec | "D"d>ed (d2 d) :|
g | "D"f>aa A>aa | "D"f>aa f>ed | "D"f>ga f>ed | "Em"e>fe "A7"d>BA |
"D"f>aa A>aa | "D"f>aa f>ed | "A7"A>ce g>ec | "D"d>ed d2 g |
"D"A>BB B>dd | "D"d>ff a>fd | "A7"A>ce g>ec | "D"d>ed (d2 d) |]

